X: 34646
T: Road To Barga
R: slip jig
M: 9/8
K: Gmajor
M:7/8
DEG ABdB|edB g2ed|edB dBe2|dBG ABGE|
DEG ABdB|edB g2ed|edB dBe2|dAB G2~G2:|
edB g2eg|abg e2dB|dBA B2DE|DEG ABG2|
edB g2eg|abg e2dB|deg e2dB|dAB G2~G2||
edB g2ab|abg e2dB|dBA B2DE|DEG ABGE|
DEG ABGA|Bde g2ed|edB dBe2|dAB G2~G2||

